assets/images/background.svg

<svg xmlns="http://www.w3.org/2000/svg" width="1455" height="713"><defs><filter filterUnits="userSpaceOnUse" id="a" x="-5" y="-5" width="1460" height="718"><feOffset in="SourceAlpha" dy="1"/><feGaussianBlur result="blurOut" stdDeviation="1.414"/><feFlood flood-color="#2B3B5D" result="floodOut"/><feComposite operator="atop" in="floodOut" in2="blurOut"/><feComponentTransfer><feFuncA type="linear" slope=".09"/></feComponentTransfer><feMerge><feMergeNode/><feMergeNode in="SourceGraphic"/></feMerge></filter></defs><path stroke="#FFF" stroke-width="10" stroke-opacity=".05" fill="none" d="M1387.211 30.998l36.785 26.352L1382.993 76l4.218-45.002zM1403 363c18.777 0 34 15.222 34 34s-15.223 34-34 34c-18.778 0-34-15.222-34-34s15.222-34 34-34zm-62.5-112c-10.217 0-18.5-8.283-18.5-18.5s8.283-18.5 18.5-18.5 18.5 8.283 18.5 18.5-8.283 18.5-18.5 18.5zM1163 204c-29.271 0-53-23.729-53-53s23.729-53 53-53 53 23.729 53 53-23.729 53-53 53zm-.181 455.66l-97.675-52.781 94.567-58.837 3.108 111.618zM991 220a9 9 0 1 1 0-18 9 9 0 0 1 0 18zm-386.963-56.443l38.671 9.029-27.407 29.213-11.264-38.242zM622.5 612c10.217 0 18.5 8.283 18.5 18.5s-8.283 18.5-18.5 18.5-18.5-8.283-18.5-18.5 8.283-18.5 18.5-18.5zM362 667c-29.271 0-53-23.729-53-53s23.729-53 53-53 53 23.729 53 53-23.729 53-53 53zm-43.501-517.504l77.243 55.266-86.1 39.113 8.857-94.379zM262.5 363c-5.799 0-10.5-4.701-10.5-10.5s4.701-10.5 10.5-10.5 10.5 4.701 10.5 10.5-4.701 10.5-10.5 10.5zM192 299c-9.389 0-17-7.611-17-17s7.611-17 17-17 17 7.611 17 17-7.611 17-17 17zM65 114c-29.271 0-53-23.729-53-53S35.729 8 65 8s53 23.729 53 53-23.729 53-53 53zm34.5 339c8.56 0 15.5 6.939 15.5 15.5 0 8.56-6.94 15.5-15.5 15.5-8.561 0-15.5-6.94-15.5-15.5 0-8.561 6.939-15.5 15.5-15.5zm.5 222a8 8 0 1 1 0 16 8 8 0 0 1 0-16zm1283-16a8 8 0 1 1 0 16 8 8 0 0 1 0-16z" filter="url(#a)"/></svg>

<svg 
 xmlns="http://www.w3.org/2000/svg"
 xmlns:xlink="http://www.w3.org/1999/xlink"
 width="1455px" height="713px">
<defs>
<filter filterUnits="userSpaceOnUse" id="Filter_0" x="-5px" y="-5px" width="1460px" height="718px"  >
    <feOffset in="SourceAlpha" dx="0" dy="1" />
    <feGaussianBlur result="blurOut" stdDeviation="1.414" />
    <feFlood flood-color="rgb(43, 59, 93)" result="floodOut" />
    <feComposite operator="atop" in="floodOut" in2="blurOut" />
    <feComponentTransfer><feFuncA type="linear" slope="0.09"/></feComponentTransfer>
    <feMerge>
    <feMergeNode/>
    <feMergeNode in="SourceGraphic"/>
  </feMerge>
</filter>

</defs>
<g filter="url(#Filter_0)">
<path fill-rule="evenodd"  stroke="rgb(255, 255, 255)" stroke-width="10px" stroke-opacity="0.05" stroke-linecap="butt" stroke-linejoin="miter" fill="none"
 d="M1387.211,30.998 L1423.996,57.350 L1382.993,76.000 L1387.211,30.998 ZM1403.000,363.000 C1421.777,363.000 1437.000,378.222 1437.000,397.000 C1437.000,415.778 1421.777,431.000 1403.000,431.000 C1384.222,431.000 1369.000,415.778 1369.000,397.000 C1369.000,378.222 1384.222,363.000 1403.000,363.000 ZM1340.500,251.000 C1330.283,251.000 1322.000,242.717 1322.000,232.500 C1322.000,222.283 1330.283,214.000 1340.500,214.000 C1350.717,214.000 1359.000,222.283 1359.000,232.500 C1359.000,242.717 1350.717,251.000 1340.500,251.000 ZM1163.000,204.000 C1133.729,204.000 1110.000,180.271 1110.000,151.000 C1110.000,121.729 1133.729,98.000 1163.000,98.000 C1192.271,98.000 1216.000,121.729 1216.000,151.000 C1216.000,180.271 1192.271,204.000 1163.000,204.000 ZM1162.819,659.660 L1065.144,606.879 L1159.711,548.042 L1162.819,659.660 ZM991.000,220.000 C986.029,220.000 982.000,215.970 982.000,211.000 C982.000,206.029 986.029,202.000 991.000,202.000 C995.970,202.000 1000.000,206.029 1000.000,211.000 C1000.000,215.970 995.970,220.000 991.000,220.000 ZM604.037,163.557 L642.708,172.586 L615.301,201.799 L604.037,163.557 ZM622.500,612.000 C632.717,612.000 641.000,620.283 641.000,630.500 C641.000,640.717 632.717,649.000 622.500,649.000 C612.283,649.000 604.000,640.717 604.000,630.500 C604.000,620.283 612.283,612.000 622.500,612.000 ZM362.000,667.000 C332.729,667.000 309.000,643.271 309.000,614.000 C309.000,584.729 332.729,561.000 362.000,561.000 C391.271,561.000 415.000,584.729 415.000,614.000 C415.000,643.271 391.271,667.000 362.000,667.000 ZM318.499,149.496 L395.742,204.762 L309.642,243.875 L318.499,149.496 ZM262.500,363.000 C256.701,363.000 252.000,358.299 252.000,352.500 C252.000,346.701 256.701,342.000 262.500,342.000 C268.299,342.000 273.000,346.701 273.000,352.500 C273.000,358.299 268.299,363.000 262.500,363.000 ZM192.000,299.000 C182.611,299.000 175.000,291.389 175.000,282.000 C175.000,272.611 182.611,265.000 192.000,265.000 C201.389,265.000 209.000,272.611 209.000,282.000 C209.000,291.389 201.389,299.000 192.000,299.000 ZM65.000,114.000 C35.729,114.000 12.000,90.271 12.000,61.000 C12.000,31.729 35.729,8.000 65.000,8.000 C94.271,8.000 118.000,31.729 118.000,61.000 C118.000,90.271 94.271,114.000 65.000,114.000 ZM99.500,453.000 C108.060,453.000 115.000,459.939 115.000,468.500 C115.000,477.060 108.060,484.000 99.500,484.000 C90.939,484.000 84.000,477.060 84.000,468.500 C84.000,459.939 90.939,453.000 99.500,453.000 ZM100.000,675.000 C104.418,675.000 108.000,678.582 108.000,683.000 C108.000,687.418 104.418,691.000 100.000,691.000 C95.582,691.000 92.000,687.418 92.000,683.000 C92.000,678.582 95.582,675.000 100.000,675.000 ZM1383.000,659.000 C1387.418,659.000 1391.000,662.582 1391.000,667.000 C1391.000,671.418 1387.418,675.000 1383.000,675.000 C1378.582,675.000 1375.000,671.418 1375.000,667.000 C1375.000,662.582 1378.582,659.000 1383.000,659.000 Z"/>
</g>
</svg>
